artwork/resources/intui/icons/shell/tool-windows/palette.svg

<svg width="16" height="17" viewBox="0 0 16 17" fill="none" xmlns="http://www.w3.org/2000/svg">
<path d="M2.5 10.1259V13.1259C2.5 13.402 2.72386 13.6259 3 13.6259H13C13.2761 13.6259 13.5 13.402 13.5 13.1259V10.1259C13.5 9.84971 13.2761 9.62585 13 9.62585H3C2.72386 9.62585 2.5 9.84971 2.5 10.1259Z" stroke="#6C707E"/>
<path fill-rule="evenodd" clip-rule="evenodd" d="M10 2.12585C9.44772 2.12585 9 2.57357 9 3.12585V4.22868L10 5.20298V3.12585L13 3.12585V8.08266C13.0634 8.11088 13.1326 8.12585 13.2033 8.12585L14 8.12586V3.12585C14 2.57357 13.5523 2.12585 13 2.12585H10Z" fill="#6C707E"/>
<path fill-rule="evenodd" clip-rule="evenodd" d="M3.14061 5.27811C2.75009 5.66863 2.75009 6.30179 3.14061 6.69232L4.57413 8.12584H5.98834L3.84772 5.98521L5.82841 4.00452L9.94973 8.12584H11.3639L6.53552 3.29741C6.14499 2.90689 5.51183 2.90689 5.12131 3.29741L3.14061 5.27811Z" fill="#6C707E"/>
<circle cx="11.5" cy="11.6259" r="0.5" fill="#6C707E"/>
</svg>

<svg width="16" height="16" viewBox="0 0 16 16" fill="none" xmlns="http://www.w3.org/2000/svg"><path d="M2.5 10v3a.5.5 0 0 0 .5.5h10a.5.5 0 0 0 .5-.5v-3a.5.5 0 0 0-.5-.5H3a.5.5 0 0 0-.5.5z" stroke="#6C707E"/><path fill-rule="evenodd" clip-rule="evenodd" d="M10 2a1 1 0 0 0-1 1v1.103l1 .974V3h3v4.957a.5.5 0 0 0 .203.043H14V3a1 1 0 0 0-1-1h-3zM3.14 5.152a1 1 0 0 0 0 1.414L4.575 8h1.414l-2.14-2.14 1.98-1.981L9.95 8h1.414L6.536 3.172a1 1 0 0 0-1.415 0l-1.98 1.98z" fill="#6C707E"/><circle cx="11.5" cy="11.5" r=".5" fill="#6C707E"/></svg>
